X:1
T:Title
%%score ( 1 2 3 ) ( 4 5 6 )
L:1/8
Q:1/4=120
M:none
K:C
V:1 treble nm="Part_1"
V:2 treble 
V:3 treble 
V:4 treble nm="Part_2"
V:5 treble 
V:6 treble 
V:1
 z8 | z8 | z8 | z8 x3 | z8 | z8 | z8 x8 | z8 | z8 x2 | z8 | z8 | z8 x11/4 | z8 x8 | z8 x2 | z8 | %15
 z8 | z8 | z8 x2 | z8 ||[K:Eb]!p! [CF]4 x4 | [CF]2 E2 [DG]2 [DB]2 | c4 [DB]2 [EG]2 | %22
 [CF]4 F2 E2 x4 | !>!e4 !arpeggio!_A4 [EG]4 [Ec]4 x2 | [Ee]2 [Gd]2 [Gc]2 [FB]2 x2 | %25
 [Gc]4 [FB]2 [EG]2 | [CF]4 B4 | !tenuto![Ec]2 z2 [FB]2 [Gc]2 [Ge]2 | (f8 | [Ge]2 [Gc]2) (cB G2) | %30
 F4 (3:2:2!>!F4 z2 C2 z2 | !tenuto![B,F]2 (3:2:4z2 E2 [DG]2 [DB]2 x2/3 | (([Cc]4 [EB]2)) [DG]2 x4 | %33
 [CF]4 !>!B,,8 (3F2 E2 z2 x11/8 | [EG]4!p! (3:2:2[Gc]4 z2 x2 | !>!!tenuto![Ae]2 [Gd]2 [Ec]2 [GB]2 | %36
 (3:2:2z2 [Gc]4 [FB]2 [EG]2 | F8 |!p! (3:2:2!>!F4 z2 (3:2:2!>!F2 z E2 | %39
 (3(!>!G2 .B2) (c2 !tenuto!e2) x2 |!mp!!<(! !>!f8- F2 A2!<)! | f8- |!>(! .f8- x4!>)! | %43
 ((f4!p! e2 c2) |!>(! (c)!tenuto!B) G2!>)! F4 |!p! c''8 x4 | !^!!tenuto!G4!p! (3!>!F2 E2 z2 x2 | %47
 G8 |!>(! (F4!>)!!pp! !tenuto!ME4) x8 | E8- | E8!p! E z z2 x8 | z8 | z8 | z8 |] %54
V:2
 x8 | x8 | x8 | x11 | x8 | x8 | x16 | x8 | x10 | x8 | x8 | x43/4 | x16 | x10 | x8 | x8 | x8 | x10 | %18
 x8 ||[K:Eb] x8 | x2 E2 x4 | ((C2 E2)) x4 | x4 F2 E2 x4 | x18 | x10 | x8 | x4 (B,2 F2) | x10 | %28
 F6 A2 | x4 E2- E2 | (C2 E2 D4) x4 | x10/3 (3:2:1E2 x10/3 | x12 | x40/3 (3:2:2F2 z E2 | x10 | x8 | %36
 x8 | (C2 E2) D2!p! D2 | (C4 [B,D]2) z2 | x8 | x12 | (G2 F2) (E2 G2) | z2 B,4 x6 | C8 | C8 | %45
 F2 (3:2:2E2 z G4 x4 | x4/3 B,4 (3:2:2!>!C2 z E2 x2/3 | z B,4 x3 | C8 x8 | x8 | x9 z2 z4 x5 | %51
 !arpeggio!d''8 | x8 | x8 |] %54
V:3
 x8 | x8 | x8 | x11 | x8 | x8 | x16 | x8 | x10 | x8 | x8 | x43/4 | x16 | x10 | x8 | x8 | x8 | x10 | %18
 x8 ||[K:Eb] x8 | x8 | x8 | x12 | x18 | x10 | x8 | x8 | x10 | x8 | x8 | x12 | x8 | x12 | x139/8 | %34
 x10 | x8 | x8 | x8 | x8 | x8 | x12 | x8 | x12 | x8 | x8 | x4 (3:2:2E4 z2 x4 | x10 | x8 | G,,8 x8 | %49
 x8 | x20 | x8 | x8 | x8 |] %54
V:4
 Me4 !arpeggio!_A4 | x8 | z2 x6 | !>!!wedge!F2 !arpeggio!b8 x | (6:4:2z2 c4 z4/3 (6:4:1G2 x4/3 | %5
 F4 TF2 E2 | !^!e4 !arpeggio!_A4 G4!p!!<(! (3:2:2!>!c4!<)! z2 | !>!e2 d2 c2 B2 | %8
 z2 !>!c4!>(! B2!>)! !tenuto!G2 | x8 | (3:2:2!>!B4!<(! z2 x4 | %11
 (3:2:2!>!c2 z (3z2 B2 z2 (3:2:2c2 z!<)! e2 x3/4 | e4 !arpeggio!_A4 f4 f4 | %13
 z !>!e2!>(! z2 c2 (!>!c(3:2:2!>!B)!>)! G2 |!p!!p! F4 x4 | z2 x6 | !>!F2 E2 G2 B2 | %17
 z2 c4!>(! B2 G2!>)! | F4 x4 ||[K:Eb][K:bass]!p!!p! [df]4 x4 | [F,A,]2 [C,G,]2 [B,,G,]2 [B,,G,]2 | %21
 z2 (6:4:1[B,,F,]2 x14/3 | [F,A,]4 e8 | E,4 !arpeggio!_A,,4 [E,B,]4!p! G,4 B,,2 | !>!e8 x2 | %25
 z2 [C,E]2 [D,B,]2 [E,B,]2 | [F,A,]4 [D,B,]4 | [C,A,]2 [D,B,]2 [E,C]2 [C,C]2 x2 | %28
 (([A,C]2 [CE]2 [B,D]2 [A,C]2 | [CE]4)) (([C,C]2 [E,B,]2)) | MF,4 (C2 B,2) z2 A,2 | %31
 [D,A,]2 [C,G,]2 [B,,G,]2 [B,,G,]2 | (E,2 E,F, G,2) [E,,B,,]2 G,2 [E,,B,,]2 | %33
 (E,2 !tenuto!A,2) [A,C]2 [A,C]2 x75/8 | B,4 (E2 (3!tenuto!D2)!p! z2 z2 | !>!e8 | %36
 (3z2 (([E,C]2 [C,E]2)) [D,B,]2 [E,B,]2 | !wedge!!tenuto!C2 B,2 B,2 x2 | A,4- A, z z2 | z8 | %40
!mp! z4 d8 | d8 | !>!d8 x4 | A,8- | !wedge!A,8 | z4!p! !tenuto!e8 | !tenuto![D,B,]4 [C,A,]4 x2 | %47
 G,8 |!>(! E,8!>)!!p! !>!F,2 .E,2 MG,4- | G,4 (!>!F,2 E,2) | %50
 (F,2 !tenuto!E,2) F,4 !>!!^![E,,B,,-]4!pp! [D,,F,,B,,] z z2 (G,2 B,2) | %51
!<(! (!tenuto!C2 !tenuto!E2)!<)!!>(! (MF4 | E2 C2)!>)! (CB,) G,2 |!pp! F,8 |] %54
V:5
 x8 | x8 | x8 | x2 !>!E2 !^!G2 z2 z B2 | (6:4:1z2 x20/3 | x8 | x16 | x8 | x10 | x8 | x8 | x43/4 | %12
 x16 | x10 | x8 | x8 | x8 | x10 | x8 ||[K:Eb][K:bass] x8 | x8 | (6:4:3(E,2 A,2) [E,G,]2 x4 | %22
 x4 [A,C]2 [A,C]2 x4 | x12 C,2 z2 x2 | [A,,C]2 e8 | [E,C]2 x6 | x8 | x10 | x8 | x8 | %30
 [F,A,]4 x2 !>!F,4 x2 | x8 | ((.A,,4 E,2)) x2 E,2 x2 | A,,4 x107/8 | %34
 x4/3 (E,2 D,2 C,2) (3:2:1!>!B,,2 x4/3 | [A,,C]2 [B,,G,]2 [C,C]2 [G,D]2 | x8 | x8 | F,4- F, x3 | %39
 x8 | x4 [A,C]2 [CE]2 x4 | ([B,D]2 !tenuto![A,C]2)!p! (3:2:2[G,B,]4 z2 | [G,B,]4 d8 | E,8 | x8 | %45
 x4 [E,B,]4 x4 | x10 | B,,8 | A,,8 !>!A,,4 B,,4 | !>!E,4 C,4 | !>!A,,4 F,4 x4 E,4 x4 | x8 | x8 | %53
 x8 |] %54
V:6
 x8 | x8 | x8 | x11 | x8 | x8 | x16 | x8 | x10 | x8 | x8 | x43/4 | x16 | x10 | x8 | x8 | x8 | x10 | %18
 x8 ||[K:Eb][K:bass] x8 | x8 | (6:4:1A,,4 x16/3 | x12 | x18 | x2 [B,,D]2 [C,E]2 [D,F]2 x2 | x8 | %26
 x8 | x10 | x8 | x8 | x12 | x8 | x12 | x139/8 | x10 | x8 | x8 | x8 | x8 | x8 | x12 | x8 | %42
 x4 [G,B,]4 x4 | x8 | x8 | x12 | x10 | x8 | x16 | x8 | x12 E,4 x4 | x8 | x8 | x8 |] %54

